public/images/actions/tiny-claim.svg

<?xml version="1.0" encoding="UTF-8"?>
<svg width="16px" height="16px" viewBox="0 0 16 16" version="1.1" xmlns="http://www.w3.org/2000/svg" xmlns:xlink="http://www.w3.org/1999/xlink">
    <!-- Generator: Sketch 56.3 (81716) - https://sketch.com -->
    <title>atoms / icon / 16px / claim</title>
    <desc>Created with Sketch.</desc>
    <g id="atoms-/-icon-/-16px-/-claim" stroke="none" stroke-width="1" fill="none" fill-rule="evenodd">
        <g id="atoms-/-spacing-/-boundingBox">
            <rect id="boundingBox" x="0" y="0" width="16" height="16"></rect>
        </g>
        <path d="M3.33333333,7.35481441 L3.33333333,12.2713748 L6.33408669,13.6818016 C6.46829986,13.744885 6.61883318,13.7459324 6.75371395,13.6847213 L13.8006445,10.486708 C13.7832736,10.4524676 13.7631526,10.4198211 13.7402467,10.3884194 C13.6602,10.2786831 13.5409106,10.1766014 13.3770744,10.0850793 C13.3005651,10.0423391 13.2164691,10.0201163 13.1312394,10.0201163 L10.2270917,10.0201163 C10.3018501,10.2505542 10.3375481,10.4885677 10.3329376,10.7329613 C10.327523,11.0199763 10.0769936,11.25 9.7698068,11.25 L5.4375472,11.25 C5.12649033,11.25 4.87432891,11.0143604 4.87432891,10.7236842 C4.87432891,10.433008 5.12649033,10.1973684 5.4375472,10.1973684 L9.09974758,10.1973684 C9.04795737,10.0812946 8.97698959,9.96627712 8.88597338,9.85148166 C8.86674976,9.83125424 8.84877919,9.80950655 8.83220908,9.78640639 C8.8208396,9.77317916 8.80920149,9.75995279 8.79729344,9.746726 C8.54031854,9.46129275 8.24289644,9.27175083 7.89650448,9.16928058 C7.84152244,9.1530157 7.78419062,9.14473787 7.72652474,9.14473684 L5.97907965,9.14473684 C5.78717354,9.14473684 5.60847393,9.05342509 5.50491191,8.90244708 C5.18383571,8.43436578 4.78455723,8.04630673 4.30432878,7.73515048 C4.01394847,7.54700325 3.69174495,7.4201964 3.33333333,7.35481441 Z M3.33333333,6.2880938 C3.92633072,6.36514772 4.4661783,6.55911094 4.94616827,6.87011268 C5.46374361,7.20546725 5.90792897,7.61345619 6.2769854,8.09210526 L7.72653552,8.09210526 C7.8995442,8.09210836 8.07152557,8.11693981 8.23646528,8.16573255 C8.64300686,8.28599636 9.00829884,8.48191651 9.32896585,8.75 L13.1312394,8.75 C13.3869306,8.75 13.6392232,8.81666969 13.8687539,8.94489206 C14.1671519,9.111583 14.4122794,9.32135026 14.5988352,9.57710041 C14.8654033,9.94253968 15,10.3853855 15,10.8793125 C15,11.1392454 14.8608253,11.372937 14.6486884,11.4692082 L7.16702012,14.8645126 C6.76237781,15.0481459 6.31077784,15.0450038 5.90813833,14.8557534 L3.33333333,13.6455328 L3.33333333,13.9285714 C3.33333333,14.5203051 3.0721661,15 2.75,15 L1.58333333,15 C1.26116723,15 1,14.5203051 1,13.9285714 L1,6.07142857 C1,5.47969491 1.26116723,5 1.58333333,5 L2.75,5 C3.0721661,5 3.33333333,5.47969491 3.33333333,6.07142857 L3.33333333,6.2880938 Z M6.5,5 C5.67157288,5 5,4.32842712 5,3.5 C5,2.67157288 5.67157288,2 6.5,2 C7.32842712,2 8,2.67157288 8,3.5 C8,4.32842712 7.32842712,5 6.5,5 Z M11.5,7 C10.6715729,7 10,6.32842712 10,5.5 C10,4.67157288 10.6715729,4 11.5,4 C12.3284271,4 13,4.67157288 13,5.5 C13,6.32842712 12.3284271,7 11.5,7 Z" id="🎨-icon-colour" fill="#5485FF"></path>
    </g>
</svg>

<svg width="16" height="16" xmlns="http://www.w3.org/2000/svg"><g fill="none" fill-rule="evenodd"><path d="M0 0h16v16H0z"/><path d="M3.333 7.355v4.916l3.001 1.41a.496.496 0 00.42.004l7.047-3.198a.716.716 0 00-.06-.099c-.08-.11-.2-.211-.364-.303a.503.503 0 00-.246-.065h-2.904c.075.23.11.469.106.713-.005.287-.256.517-.563.517H5.438c-.312 0-.564-.236-.564-.526 0-.291.252-.527.564-.527H9.1a1.623 1.623 0 00-.268-.41 1.924 1.924 0 00-.936-.617.6.6 0 00-.17-.025H5.98a.574.574 0 01-.474-.243 4.225 4.225 0 00-1.2-1.167 2.631 2.631 0 00-.972-.38zm0-1.067a3.84 3.84 0 011.613.582 5.32 5.32 0 011.331 1.222h1.45c.173 0 .345.025.51.074.406.12.771.316 1.092.584h3.802c.256 0 .508.067.738.195.298.167.543.376.73.632.266.366.401.808.401 1.302 0 .26-.14.494-.351.59l-7.482 3.396c-.405.183-.856.18-1.259-.01l-2.575-1.21v.284c0 .591-.26 1.071-.583 1.071H1.583C1.261 15 1 14.52 1 13.929V6.07C1 5.48 1.261 5 1.583 5H2.75c.322 0 .583.48.583 1.071v.217zM6.5 5a1.5 1.5 0 110-3 1.5 1.5 0 010 3zm5 2a1.5 1.5 0 110-3 1.5 1.5 0 010 3z" fill="#5485FF"/></g></svg>
